X:1
T: Leather Lake House
N:
C:TWO tunes - we can stop with either
S:Leather Lake House & Clan Pease Strae
A:
O:
R:
M:4/4
K:A
I:speed 220
%W: A
% voice 1 (1 lines, 29 notes)
K:A
M:4/4
L:1/16
A8 c2 B2 A2 B2 |c4 A4 e8 |d4 c4 B4 A4 |G4 A4 B4 E4 |A8 c2 B2 A2 B2 |c4 A4 e8 |d4 c4 B8 |A8A8 |
%W:
% voice 1 (1 lines, 29 notes)
A8 c2 B2 A2 B2 |c4 A4 e8 |d4 c4 B4 A4 |G4 A4 B4 E4 |A8 c2 B2 A2 B2 |c4 A4 e8 |d4 c4 B8 |A8A8 |
%W: B
% voice 1 (1 lines, 31 notes)
a6 b2 a4 g4 |f6 g2 f4 e4 |d4 c4 B4 A4 |G4 A4 B4 E4 |a6 b2 a4 g4 |f6 g2 f4 e4 |d4 c4 B4 A4 |e4 E4 A8 |
%W:
% voice 1 (1 lines, 31 notes)
a6 b2 a4 g4 |f6 g2 f4 e4 |d4 c4 B4 A4 |G4 A4 B4 E4 |a6 b2 a4 g4 |f6 g2 f4 e4 |d4 c4 B4 A4 |e4 E4 A8 ||
%W: A
% voice 1 (1 lines, 27 notes)
K:D
d8 f4 d4 |g4 e4 f4 d4 |e4 A4 A4 B4 |=c8 B4 A4 |d8 f4 d4 |g4 e4 f4 d4 |e4 g4 f4 e4 |d8d8 |
%W:
% voice 1 (1 lines, 27 notes)
d8 f4 d4 |g4 e4 f4 d4 |e4 A4 A4 B4 |=c8 B4 A4 |d8 f4 d4 |g4 e4 f4 d4 |e4 g4 f4 e4 |d8d8 |
%W: B
% voice 1 (1 lines, 30 notes)
a4 f4 d4 f4 |a2 g2 f2 e2 d8 |e4 A4 A4 B4 |=c8c8 |a4 f4 d4 f4 |a2 g2 f2 e2 d8 |e4 g4 f4 e4 |d8d8 |
%W:
% voice 1 (1 lines, 30 notes)
a4 f4 d4 f4 |a2 g2 f2 e2 d8 |e4 A4 A4 B4 |=c8c4 e4 |a4 f4 g4 e4 |f4 d4 e4 c4 |A4 g4 f4 e4 |d8d8 ||
